X:1
T:Precious Words (Sankey), 77.74 D
T:Precious Words (Sankey), 77.74 D
T:Ira David Sankey, 1898
T:Public Domain Courtesy of the Cyber Hymnal™
C:Ira David Sankey, 1898
Z:Public Domain
Z:Courtesy of the Cyber Hymnal™
%%score 1 ( 2 3 )
L:1/8
Q:1/4=95
M:4/4
K:Ab
V:1 treble 
V:2 bass 
V:3 bass 
V:1
 [Ec]>[DB] [Fd]>[Ec] [Ec]>[DB] [DB]2 | [DB]>[CA] [Ec]>[DB] [DB]>[CA] [CA]2 | %2
 [DF]>[DF] [DA]>[DA] [CE]>[EA] [Ac]>[Ae] | [Ge]2 [F=d]2 [Ge]4 | %4
 [Ec]>[DB] [Fd]>[Ec] [Ec]>[DB] [DB]2 | [DB]>[CA] [Ec]>[DB] [DB]>[CA] [CA]2 | %6
 [FA]>[FA] [EG]>[DF] [CE]>[CA] [Ec]>[Ee] | [Ge]2 [EG]2 [EA]4 |] %8
V:2
 [A,,A,]>[A,,A,] [A,,A,]>[A,,A,] [E,G,]>[E,G,] [E,G,]2 | E,>E, E,>[E,G,] [E,G,]>[A,,A,] [A,,A,]2 | %2
 [D,A,]>[D,A,] [F,A,]>[F,A,] A,>[A,C] [A,E]>[A,C] | B,2 [B,,B,]2 [E,B,]4 | %4
 A,>A, A,>A, [E,G,]>[E,G,] [E,G,]2 | E,>E, E,>[E,G,] [E,G,]>[A,,A,] [A,,A,]2 | %6
 [D,A,]>[D,A,] [D,A,]>[F,A,] A,>A, [A,,A,]>[C,A,] | [E,B,]2 [E,D]2 [A,,C]4 |] %8
V:3
 x8 | E,>E, E,3/2 x9/2 | x4 A,3/2 x5/2 | B,2 x6 | A,>A, A,>A, x4 | E,>E, E,3/2 x9/2 | x4 A,>A, x2 | %7
 x8 |] %8

